X:427
T: UNSER LEBEN SAGEN WEISE
N: F0792
O: Europa, Mitteleuropa, Deutschland
R: Geselligkeits -, Moral - Lied
M: 3/8
L: 1/8
K: D
 | A2A | A2F | D2E | F2D |
A2c | ecA | ^GFG | A2z |
A2A | B2B | cBc | d2A |
gfe | A2A | ABc | d2z

@@@ Tune index: 5858
